X:1
T:Judas Maccabeus, 10.11.11.11 refrain
T:Judas Maccabeus, 10.11.11.11 refrain
T:George Frederick Handel, 1747
T:Public Domain Courtesy of the Cyber Hymnal™
C:George Frederick Handel, 1747
Z:Public Domain
Z:Courtesy of the Cyber Hymnal™
%%score ( 1 2 ) ( 3 4 )
L:1/8
M:4/4
K:Eb
V:1 treble 
V:2 treble 
V:3 bass 
V:4 bass 
V:1
 [EB]4 [EG]3 [FA] | [EB]4 E4 | ([DF][EG]) ([FA][GB]) [FA]2 [EG]2 | [DF]8 | (GA) (Bc) [EB]2 [EB]2 | %5
 [Ee]4 [EB]4 | A2 [EG]2 F3 z E | E8 | ([EG][DF]) ([EG][FA]) [EG]2 [EG]2 | [DF]4 [CE]4 | %10
 [FA]2 [EG]2 [DF]2 [CE]2 | [=B,D]8 | ([CE][=B,D]) ([CE][DF]) [CE]2 [CE]2 | [Ec]4 [E=A]4 | %14
 [DB]2 ([Ec][DB]) =A3 z B | [DB]8 | [EB]4 [EG]3 [FA] | [EB]4 E4 | %18
 ([DF][EG]) ([FA][GB]) [FA]2 [EG]2 | [DF]8 | (GA) (Bc) [EB]2 [EB]2 | [Ee]4 [EB]4 | %22
 A2 [EG]2 F3 z E | E8 |] %24
V:2
 x8 | x4 E4 | x8 | x8 | E2 E2 x4 | x8 | (CD) x E2 D2 x2 | E8 | x8 | x8 | x8 | x8 | x8 | x8 | %14
 x4 C2 E2 x | x8 | x8 | x4 E4 | x8 | x8 | E2 E2 x4 | x8 | (CD) x E2 D2 x2 | E8 |] %24
V:3
 [E,G,]4 [G,B,]3 [F,A,] | [E,G,]4 [G,B,]4 | B,2 [B,,B,]2 [D,B,]2 [E,B,]2 | [B,,B,]8 | %4
 B,2 ([G,B,] [G,B,]2) [G,B,]2 x | [E,G,]4 [E,G,]4 | [F,A,]2 B,2 B,2 [B,,A,]2 x | [E,G,]8 | %8
 [E,B,]2 [E,B,]2 [E,B,]2 [E,B,]2 | [=B,,A,]4 [C,G,]4 | [D,=B,]2 [E,C]2 [F,A,]2 [C,G,]2 | G,8 | %12
 [C,G,]2 [C,G,]2 [C,G,]2 [C,G,]2 | [F,=A,]4 [F,C]4 | [G,B,]2 [E,G,]2 F,2 [F,,F,]2 x | [B,,F,]8 | %16
 [E,G,]4 [G,B,]3 [F,A,] | [E,G,]4 [G,B,]4 | B,2 [B,,B,]2 [D,B,]2 [E,B,]2 | [B,,B,]8 | %20
 B,2 ([G,B,] [G,B,]2) [G,B,]2 x | [G,B,]4 [E,G,]4 | [F,A,]2 B,2 B,2 [B,,A,]2 x | [E,G,]8 |] %24
V:4
 x8 | x8 | B,2 x6 | x8 | (E,F,)A, x5 | x8 | x2 (G,A,) B,2 x3 | x8 | x8 | x8 | x8 | G,8 | x8 | x8 | %14
 x4 F,2 x3 | x8 | x8 | x8 | B,2 x6 | x8 | (E,F,)A, x5 | x8 | x2 (G,A,) B,2 x3 | x8 |] %24

